src/icons/dragger-vertical.svg

<svg fill="none" height="24" viewBox="0 0 24 24" width="24" xmlns="http://www.w3.org/2000/svg"><path d="m8 13c.55228 0 1-.4477 1-1s-.44772-1-1-1-1 .4477-1 1 .44772 1 1 1z"/><path d="m8 6c.55228 0 1-.44772 1-1s-.44772-1-1-1-1 .44772-1 1 .44772 1 1 1z"/><path d="m8 20c.55228 0 1-.4477 1-1s-.44772-1-1-1-1 .4477-1 1 .44772 1 1 1z"/><path d="m16 13c.5523 0 1-.4477 1-1s-.4477-1-1-1-1 .4477-1 1 .4477 1 1 1z"/><path d="m16 6c.5523 0 1-.44772 1-1s-.4477-1-1-1-1 .44772-1 1 .4477 1 1 1z"/><path d="m16 20c.5523 0 1-.4477 1-1s-.4477-1-1-1-1 .4477-1 1 .4477 1 1 1z"/></svg>

<svg width="24" height="24" viewBox="0 0 24 24" fill="none" xmlns="http://www.w3.org/2000/svg" class="feather">
<path d="M8 13C8.55228 13 9 12.5523 9 12C9 11.4477 8.55228 11 8 11C7.44772 11 7 11.4477 7 12C7 12.5523 7.44772 13 8 13Z" />
<path d="M8 6C8.55228 6 9 5.55228 9 5C9 4.44772 8.55228 4 8 4C7.44772 4 7 4.44772 7 5C7 5.55228 7.44772 6 8 6Z" />
<path d="M8 20C8.55228 20 9 19.5523 9 19C9 18.4477 8.55228 18 8 18C7.44772 18 7 18.4477 7 19C7 19.5523 7.44772 20 8 20Z" />
<path d="M16 13C16.5523 13 17 12.5523 17 12C17 11.4477 16.5523 11 16 11C15.4477 11 15 11.4477 15 12C15 12.5523 15.4477 13 16 13Z" />
<path d="M16 6C16.5523 6 17 5.55228 17 5C17 4.44772 16.5523 4 16 4C15.4477 4 15 4.44772 15 5C15 5.55228 15.4477 6 16 6Z" />
<path d="M16 20C16.5523 20 17 19.5523 17 19C17 18.4477 16.5523 18 16 18C15.4477 18 15 18.4477 15 19C15 19.5523 15.4477 20 16 20Z" />
</svg>
